src/images/icons/disruption.svg

<svg width="38" height="38" viewBox="0 0 38 38" fill="none" xmlns="http://www.w3.org/2000/svg">
<g clip-path="url(#clip0_6006_810)">
<path d="M36.8867 8.94091H35.1932C35.0744 8.6047 34.9374 8.27472 34.7831 7.95247L35.9811 6.75443C36.4159 6.31965 36.4159 5.6148 35.9811 5.18002L32.8201 2.01897C32.3854 1.5842 31.6804 1.5842 31.2456 2.01897L30.0476 3.21701C29.7254 3.06264 29.3954 2.9257 29.0592 2.80688V1.11328C29.0592 0.498453 28.5607 0 27.9459 0H23.4754C22.8606 0 22.3621 0.498453 22.3621 1.11328V2.8068C22.0258 2.9257 21.696 3.06256 21.3737 3.21694L20.1756 2.01897C19.7409 1.5842 19.036 1.5842 18.6012 2.01897L15.4401 5.18002C15.2313 5.3888 15.114 5.67195 15.114 5.96726C15.114 6.2625 15.2313 6.54565 15.4401 6.75443L16.6383 7.95261C16.4838 8.27532 16.3468 8.60611 16.2277 8.94336H14.5283C14.233 8.94336 13.9497 9.06077 13.7409 9.26963C13.5322 9.47848 13.4149 9.76177 13.415 10.0572L13.4156 11.1885H14.5283C15.8442 11.1885 16.9848 11.9534 17.5288 13.0621C17.8741 12.9435 18.2404 12.8819 18.6164 12.8819C19.5085 12.8819 20.3473 13.2293 20.9781 13.8602L21.11 13.9921C20.9136 13.4616 20.806 12.8882 20.806 12.2894C20.806 9.58068 23.0018 7.38484 25.7106 7.38484C28.4193 7.38484 30.6152 9.58068 30.6152 12.2894C30.6152 14.9982 28.4193 17.194 25.7106 17.194C25.1118 17.194 24.5384 17.0864 24.008 16.89L24.1399 17.022C25.0709 17.9529 25.3363 19.3014 24.9361 20.4703C26.0457 21.0139 26.8115 22.155 26.8115 23.4717V24.585H27.9434C28.5577 24.585 29.056 24.0872 29.0566 23.4728L29.0583 21.7723C29.3948 21.6533 29.7249 21.5164 30.0475 21.3618L31.2456 22.5598C31.6803 22.9946 32.3852 22.9946 32.82 22.5598L35.981 19.3988C36.4158 18.964 36.4158 18.2591 35.981 17.8244L34.783 16.6263C34.9374 16.304 35.0743 15.9742 35.1931 15.638H36.8867C37.5015 15.638 38 15.1395 38 14.5247V10.0543C38 9.43936 37.5015 8.94091 36.8867 8.94091Z" fill="#C4B0A8"/>
<path d="M23.4717 22.3584H21.7775C21.6586 22.0219 21.5216 21.6918 21.3671 21.3693L22.5655 20.1708C23.0003 19.736 23.0003 19.0312 22.5655 18.5964L19.4036 15.4345C18.9689 14.9997 18.264 14.9997 17.8292 15.4345L16.6306 16.6329C16.3082 16.4784 15.978 16.3414 15.6416 16.2225V14.5283C15.6416 13.9135 15.1431 13.415 14.5283 13.415H10.0566C9.44181 13.415 8.94336 13.9135 8.94336 14.5283V16.2225C8.60693 16.3415 8.2768 16.4784 7.95432 16.6329L6.75576 15.4345C6.32106 14.9997 5.61613 14.9997 5.18136 15.4345L2.01942 18.5964C1.58464 19.0312 1.58464 19.736 2.01942 20.1708L3.2179 21.3693C3.06338 21.6918 2.92637 22.0219 2.80747 22.3584H1.11328C0.498453 22.3584 0 22.8569 0 23.4717V27.9434C0 28.5582 0.498453 29.0566 1.11328 29.0566H2.80747C2.92645 29.3931 3.06338 29.7232 3.2179 30.0457L2.01942 31.2442C1.58464 31.679 1.58464 32.3839 2.01942 32.8186L5.18136 35.9806C5.61606 36.4154 6.32099 36.4154 6.75576 35.9806L7.95432 34.7821C8.2768 34.9366 8.60693 35.0736 8.94336 35.1925V36.8867C8.94336 37.5015 9.44181 38 10.0566 38H14.5283C15.1431 38 15.6416 37.5015 15.6416 36.8867V35.1925C15.978 35.0736 16.3082 34.9366 16.6306 34.7821L17.8292 35.9806C18.2639 36.4154 18.9688 36.4154 19.4036 35.9806L22.5655 32.8186C23.0003 32.3839 23.0003 31.679 22.5655 31.2442L21.3671 30.0457C21.5216 29.7232 21.6586 29.3931 21.7775 29.0566H23.4717C24.0865 29.0566 24.585 28.5582 24.585 27.9434V23.4717C24.585 22.8569 24.0865 22.3584 23.4717 22.3584ZM18.1341 25.7075C18.1341 28.9337 15.5187 31.5491 12.2925 31.5491C9.06627 31.5491 6.45087 28.9337 6.45087 25.7075C6.45087 22.4813 9.06627 19.8659 12.2925 19.8659C15.5187 19.8659 18.1341 22.4813 18.1341 25.7075Z" fill="#C4B0A8"/>
<path d="M31.2542 32.8418L31.8505 32.7213C32.2525 32.6401 32.5774 32.3443 32.6959 31.9517C32.8144 31.559 32.7073 31.1329 32.4173 30.8429L28.7306 27.1562C28.2959 26.7214 27.5909 26.7214 27.1562 27.1562C26.7214 27.5909 26.7214 28.2958 27.1562 28.7306L29.3754 30.9498L28.7791 31.0702C28.3771 31.1514 28.0522 31.4472 27.9337 31.8399C27.8151 32.2326 27.9222 32.6587 28.2123 32.9486L31.899 36.6354C32.1164 36.8528 32.4013 36.9615 32.6862 36.9615C32.971 36.9615 33.256 36.8528 33.4734 36.6354C33.9081 36.2006 33.9081 35.4957 33.4734 35.061L31.2542 32.8418Z" fill="#C4B0A8"/>
<path d="M6.88123 5.16076L6.28496 5.28122C5.88292 5.36241 5.55806 5.65817 5.43961 6.05087C5.32108 6.44356 5.42818 6.86965 5.71822 7.15962L9.40497 10.8464C9.62235 11.0637 9.9072 11.1725 10.1921 11.1725C10.477 11.1725 10.762 11.0637 10.9793 10.8464C11.4141 10.4117 11.4141 9.70673 10.9793 9.27196L8.76008 7.05274L9.35635 6.93229C9.7584 6.85109 10.0833 6.55533 10.2017 6.16264C10.3202 5.76995 10.2131 5.34386 9.92309 5.05388L6.23642 1.36707C5.80165 0.932369 5.09679 0.932294 4.66202 1.36707C4.22724 1.80177 4.22724 2.5067 4.66202 2.94147L6.88123 5.16076Z" fill="#C4B0A8"/>
</g>
<defs>
<clipPath id="clip0_6006_810">
<rect width="38" height="38" fill="white"/>
</clipPath>
</defs>
</svg>

<svg width="38" height="38" fill="none" xmlns="http://www.w3.org/2000/svg"><g clip-path="url(#clip0_6006_810)" fill="#C4B0A8"><path d="M36.887 8.94h-1.694a10.016 10.016 0 00-.41-.988l1.198-1.198a1.113 1.113 0 000-1.574l-3.16-3.161a1.113 1.113 0 00-1.575 0l-1.198 1.198a10 10 0 00-.989-.41V1.113A1.112 1.112 0 0027.946 0h-4.47c-.615 0-1.114.498-1.114 1.113v1.694c-.336.119-.666.256-.988.41l-1.198-1.198a1.113 1.113 0 00-1.575 0l-3.16 3.161a1.113 1.113 0 000 1.574l1.197 1.199c-.154.322-.291.653-.41.99h-1.7a1.114 1.114 0 00-1.113 1.114v1.131h1.113c1.316 0 2.457.765 3 1.874.346-.118.712-.18 1.088-.18.893 0 1.731.347 2.362.978l.132.132a4.905 4.905 0 112.898 2.898l.132.132c.93.93 1.196 2.28.796 3.448a3.344 3.344 0 011.875 3.002v1.113h1.132c.615 0 1.113-.498 1.114-1.112l.001-1.7c.337-.12.667-.257.99-.411l1.198 1.198c.434.435 1.14.435 1.574 0l3.161-3.161a1.113 1.113 0 000-1.575l-1.198-1.198c.154-.322.291-.652.41-.988h1.694c.614 0 1.113-.498 1.113-1.113v-4.47c0-.616-.498-1.114-1.113-1.114z"/><path d="M23.472 22.358h-1.695a10.001 10.001 0 00-.41-.989l1.198-1.198a1.113 1.113 0 000-1.575l-3.161-3.162a1.113 1.113 0 00-1.575 0l-1.198 1.199a10 10 0 00-.99-.41v-1.695c0-.614-.498-1.113-1.113-1.113h-4.471c-.615 0-1.114.499-1.114 1.113v1.694a10.03 10.03 0 00-.989.41l-1.198-1.198a1.113 1.113 0 00-1.575 0L2.02 18.596a1.113 1.113 0 000 1.575l1.199 1.198a9.997 9.997 0 00-.41.99H1.112c-.615 0-1.113.498-1.113 1.113v4.471c0 .615.498 1.114 1.113 1.114h1.694c.12.336.256.666.41.989L2.02 31.244a1.113 1.113 0 000 1.575l3.162 3.162c.435.434 1.14.434 1.575 0l1.198-1.199c.323.155.653.292.99.41v1.695c0 .614.498 1.113 1.113 1.113h4.471c.615 0 1.114-.498 1.114-1.113v-1.694a10 10 0 00.989-.41l1.198 1.198c.435.434 1.14.434 1.575 0l3.162-3.162a1.113 1.113 0 000-1.575l-1.199-1.198c.155-.323.292-.653.41-.99h1.695c.614 0 1.113-.498 1.113-1.113v-4.471c0-.615-.498-1.114-1.113-1.114zm-5.338 3.35a5.842 5.842 0 11-11.683 0 5.842 5.842 0 0111.683 0zm13.12 7.134l.596-.12a1.113 1.113 0 00.567-1.88l-3.686-3.686a1.113 1.113 0 10-1.575 1.575l2.22 2.219-.597.12a1.113 1.113 0 00-.567 1.879l3.687 3.686a1.11 1.11 0 001.574 0 1.113 1.113 0 000-1.574l-2.219-2.22zM6.881 5.16l-.596.121a1.113 1.113 0 00-.567 1.879l3.687 3.686a1.11 1.11 0 001.574 0 1.113 1.113 0 000-1.574L8.76 7.052l.596-.12a1.113 1.113 0 00.567-1.878L6.236 1.367a1.113 1.113 0 00-1.574 1.574l2.22 2.22z"/></g><defs><clipPath id="clip0_6006_810"><path fill="#fff" d="M0 0h38v38H0z"/></clipPath></defs></svg>
